svgs/sharp-regular/subtitles.svg

<svg xmlns="http://www.w3.org/2000/svg" viewBox="0 0 576 512"><!--! Font Awesome Pro 6.6.0 by @fontawesome - https://fontawesome.com License - https://fontawesome.com/license (Commercial License) Copyright 2024 Fonticons, Inc. --><path d="M48 80l0 352 480 0 0-352L48 80zM0 32l48 0 480 0 48 0 0 48 0 352 0 48-48 0L48 480 0 480l0-48L0 80 0 32zM120 240l176 0 24 0 0 48-24 0-176 0-24 0 0-48 24 0zm256 0l80 0 24 0 0 48-24 0-80 0-24 0 0-48 24 0zM120 336l80 0 24 0 0 48-24 0-80 0-24 0 0-48 24 0zm160 0l176 0 24 0 0 48-24 0-176 0-24 0 0-48 24 0z"/></svg>

<svg xmlns="http://www.w3.org/2000/svg" viewBox="0 0 576 512"><!--! Font Awesome Pro 6.5.2 by @fontawesome - https://fontawesome.com License - https://fontawesome.com/license (Commercial License) Copyright 2024 Fonticons, Inc. --><path d="M48 80V432H528V80H48zM0 32H48 528h48V80 432v48H528 48 0V432 80 32zM120 240H296h24v48H296 120 96V240h24zm256 0h80 24v48H456 376 352V240h24zM120 336h80 24v48H200 120 96V336h24zm160 0H456h24v48H456 280 256V336h24z"/></svg>
